tests/fixtures/xmp/preset-user.xmp
<x:xmpmeta xmlns:x="adobe:ns:meta/" x:xmptk="Adobe XMP Core 7.0">
 <rdf:RDF xmlns:rdf="http://www.w3.org/1999/02/22-rdf-syntax-ns#">
  <rdf:Description rdf:about=""
    xmlns:crs="http://ns.adobe.com/camera-raw-settings/1.0/"
   crs:PresetType="Normal"
   crs:Cluster=""
   crs:UUID="9F2C1A7E43B84D0FA1C6E5D2B8074C31"
   crs:SupportsAmount="False"
   crs:SupportsColor="True"
   crs:SupportsMonochrome="True"
   crs:CameraModelRestriction=""
   crs:Copyright=""
   crs:ContactInfo=""
   crs:Version="18.2.2"
   crs:ProcessVersion="15.4"
   crs:Exposure2012="+0.35"
   crs:Contrast2012="+12"
   crs:Highlights2012="-40"
   crs:Shadows2012="+30"
   crs:Texture="+8"
   crs:Clarity2012="+6"
   crs:Vibrance="+14"
   crs:SplitToningShadowHue="215"
   crs:SplitToningShadowSaturation="12"
   crs:PostCropVignetteAmount="-9"
   crs:HasSettings="True">
   <crs:Name>
    <rdf:Alt>
     <rdf:li xml:lang="x-default">Kodak Portra Warm</rdf:li>
    </rdf:Alt>
   </crs:Name>
   <crs:Group>
    <rdf:Alt>
     <rdf:li xml:lang="x-default">User Presets</rdf:li>
    </rdf:Alt>
   </crs:Group>
   <crs:Look>
   <rdf:Description
   crs:Name="Adobe Color"
   crs:Amount="1"
   crs:UUID="B952C231111CD8E0ECCF14B86BAA7077"
   crs:SupportsAmount="false"
   crs:SupportsMonochrome="false"
   crs:SupportsOutputReferred="false"
   crs:Copyright="© 2018 Adobe Systems, Inc.">
   <crs:Group>
   <rdf:Alt>
   <rdf:li xml:lang="x-default">Profiles</rdf:li>
   </rdf:Alt>
   </crs:Group>
   <crs:Parameters>
   <rdf:Description
   crs:Version="18.2.2"
   crs:ProcessVersion="15.4"
   crs:ConvertToGrayscale="False"
   crs:CameraProfile="Adobe Standard"
   crs:LookTable="E1095149FDB39D7A057BAB208837E2E1">
   <crs:ToneCurvePV2012>
   <rdf:Seq>
   <rdf:li>0, 0</rdf:li>
   <rdf:li>22, 16</rdf:li>
   <rdf:li>40, 35</rdf:li>
   <rdf:li>127, 127</rdf:li>
   <rdf:li>224, 230</rdf:li>
   <rdf:li>240, 246</rdf:li>
   <rdf:li>255, 255</rdf:li>
   </rdf:Seq>
   </crs:ToneCurvePV2012>
   <crs:ToneCurvePV2012Red>
   <rdf:Seq>
   <rdf:li>0, 0</rdf:li>
   <rdf:li>255, 255</rdf:li>
   </rdf:Seq>
   </crs:ToneCurvePV2012Red>
   <crs:ToneCurvePV2012Green>
   <rdf:Seq>
   <rdf:li>0, 0</rdf:li>
   <rdf:li>255, 255</rdf:li>
   </rdf:Seq>
   </crs:ToneCurvePV2012Green>
   <crs:ToneCurvePV2012Blue>
   <rdf:Seq>
   <rdf:li>0, 0</rdf:li>
   <rdf:li>255, 255</rdf:li>
   </rdf:Seq>
   </crs:ToneCurvePV2012Blue>
   </rdf:Description>
   </crs:Parameters>
   </rdf:Description>
   </crs:Look>
  </rdf:Description>
 </rdf:RDF>
</x:xmpmeta>
